smart-lab/build/images/icons/header/settings.svg

<svg width="96" height="96" viewBox="0 0 96 96" fill="none" xmlns="http://www.w3.org/2000/svg">
<path d="M76.5604 51.76C76.7204 50.56 76.8004 49.32 76.8004 48C76.8004 46.72 76.7204 45.44 76.5204 44.24L84.6404 37.92C85.3604 37.36 85.5604 36.28 85.1204 35.48L77.4404 22.2C76.9604 21.32 75.9604 21.04 75.0804 21.32L65.5204 25.16C63.5204 23.64 61.4004 22.36 59.0404 21.4L57.6004 11.24C57.4404 10.28 56.6404 9.59998 55.6804 9.59998H40.3204C39.3604 9.59998 38.6004 10.28 38.4404 11.24L37.0004 21.4C34.6404 22.36 32.4804 23.68 30.5204 25.16L20.9604 21.32C20.0804 21 19.0804 21.32 18.6004 22.2L10.9604 35.48C10.4804 36.32 10.6404 37.36 11.4404 37.92L19.5604 44.24C19.3604 45.44 19.2004 46.76 19.2004 48C19.2004 49.24 19.2804 50.56 19.4804 51.76L11.3604 58.08C10.6404 58.64 10.4404 59.72 10.8804 60.52L18.5604 73.8C19.0404 74.68 20.0404 74.96 20.9204 74.68L30.4804 70.84C32.4804 72.36 34.6004 73.64 36.9604 74.6L38.4004 84.76C38.6004 85.72 39.3604 86.4 40.3204 86.4H55.6804C56.6404 86.4 57.4404 85.72 57.5604 84.76L59.0004 74.6C61.3604 73.64 63.5204 72.36 65.4804 70.84L75.0404 74.68C75.9204 75 76.9204 74.68 77.4004 73.8L85.0804 60.52C85.5604 59.64 85.3604 58.64 84.6004 58.08L76.5604 51.76ZM48.0004 62.4C40.0804 62.4 33.6004 55.92 33.6004 48C33.6004 40.08 40.0804 33.6 48.0004 33.6C55.9204 33.6 62.4004 40.08 62.4004 48C62.4004 55.92 55.9204 62.4 48.0004 62.4Z" fill="black"/>
</svg>

<svg width="96" height="96" fill="none" xmlns="http://www.w3.org/2000/svg"><path d="M76.56 51.76c.16-1.2.24-2.44.24-3.76 0-1.28-.08-2.56-.28-3.76l8.12-6.32c.72-.56.92-1.64.48-2.44L77.44 22.2c-.48-.88-1.48-1.16-2.36-.88l-9.56 3.84c-2-1.52-4.12-2.8-6.48-3.76L57.6 11.24c-.16-.96-.96-1.64-1.92-1.64H40.32c-.96 0-1.72.68-1.88 1.64L37 21.4c-2.36.96-4.52 2.28-6.48 3.76l-9.56-3.84c-.88-.32-1.88 0-2.36.88l-7.64 13.28c-.48.84-.32 1.88.48 2.44l8.12 6.32c-.2 1.2-.36 2.52-.36 3.76 0 1.24.08 2.56.28 3.76l-8.12 6.32c-.72.56-.92 1.64-.48 2.44l7.68 13.28c.48.88 1.48 1.16 2.36.88l9.56-3.84c2 1.52 4.12 2.8 6.48 3.76l1.44 10.16c.2.96.96 1.64 1.92 1.64h15.36c.96 0 1.76-.68 1.88-1.64L59 74.6c2.36-.96 4.52-2.24 6.48-3.76l9.56 3.84c.88.32 1.88 0 2.36-.88l7.68-13.28c.48-.88.28-1.88-.48-2.44l-8.04-6.32zM48 62.4c-7.92 0-14.4-6.48-14.4-14.4S40.08 33.6 48 33.6 62.4 40.08 62.4 48 55.92 62.4 48 62.4z" fill="#000"/></svg>
